X:12
T:Debka #1
O:Lebanon
M:4/4
K:Dm
|:DA2ABGA2|ABGAFGEF|DA2ABGA2|c^BcdB4|
DA2ABGA2|ABGAFGEF|DF2FEDC2|F>F(3EDCD2D2:|
|:CD2DD2D2|C^B,CDB,4|CD2DDCFE|D2DDA,2D2|
CD2DD2D2|C^B,CDB,4|FG2AF2EC|D3DA,2D2:|
